svgs/regular/code-branch.svg

<svg xmlns="http://www.w3.org/2000/svg" viewBox="0 0 448 512"><!-- Font Awesome Pro 6.0.0-alpha2 by @fontawesome - https://fontawesome.com License - https://fontawesome.com/license (Commercial License) --><path d="M448 80C448 35.816 412.184 0 368 0C323.818 0 288 35.816 288 80C288 115.766 311.625 145.688 344 155.93V192C344 214.062 326.062 232 304 232H144C129.523 232 116.057 235.848 104 242.062V155.93C136.377 145.688 160 115.766 160 80C160 35.816 124.184 0 80 0C35.818 0 0 35.816 0 80C0 115.766 23.625 145.688 56 155.93V356.07C23.625 366.312 0 396.234 0 432C0 476.184 35.818 512 80 512C124.184 512 160 476.184 160 432C160 396.234 136.377 366.312 104 356.07V320C104 297.938 121.938 280 144 280H304C352.531 280 392 240.531 392 192V155.93C424.377 145.688 448 115.766 448 80ZM80 48C97.645 48 112 62.355 112 80S97.645 112 80 112S48 97.645 48 80S62.355 48 80 48ZM80 464C62.355 464 48 449.645 48 432S62.355 400 80 400S112 414.355 112 432S97.645 464 80 464ZM368 112C350.355 112 336 97.645 336 80S350.355 48 368 48S400 62.355 400 80S385.645 112 368 112Z"/></svg>

<svg xmlns="http://www.w3.org/2000/svg" viewBox="0 0 448 512"><!--! Font Awesome Pro 6.0.0-alpha3 by @fontawesome - https://fontawesome.com License - https://fontawesome.com/license (Commercial License) --><path d="M448 80C448 35.82 412.2 0 368 0C323.8 0 288 35.82 288 80c0 35.77 23.62 65.69 56 75.93V192c0 22.06-17.94 40-40 40h-160c-14.48 0-27.94 3.848-40 10.06V155.9C136.4 145.7 160 115.8 160 80C160 35.82 124.2 0 80 0C35.82 0 0 35.82 0 80c0 35.77 23.62 65.69 56 75.93v200.1C23.63 366.3 0 396.2 0 432C0 476.2 35.82 512 80 512C124.2 512 160 476.2 160 432c0-35.77-23.62-65.69-56-75.93V320c0-22.06 17.94-40 40-40h160c48.53 0 88-39.47 88-88V155.9C424.4 145.7 448 115.8 448 80zM80 48c17.64 0 32 14.36 32 32s-14.36 32-32 32s-32-14.36-32-32S62.36 48 80 48zM80 464c-17.64 0-32-14.36-32-32s14.36-32 32-32s32 14.36 32 32S97.64 464 80 464zM368 112c-17.64 0-32-14.36-32-32s14.36-32 32-32s32 14.36 32 32S385.6 112 368 112z"/></svg>
